X: 16
T:Ballantynes
% Nottingham Music Database
S:Kevin Briggs, via EF
M:4/4
L:1/4
K:D
f/2e/2|"D"dA/2A/2 FA|"G"GB/2G/2 "D"FA|"D"Ad/2f/2 g/2f/2e/2d/2|\
"Em""G"fe "A7""A"ef/2e/2|
"D""Bm"dA/2A/2 FA|"G"GB/2G/2 "D"FA|"D"Ad/2f/2 "A7"g/2f/2e/2d/2|"D"ed d:||:
f/2e/2|"D"dd f/2e/2d/2e/2|"Em"fe "A7"e/2g/2f/2e/2|"D"dd a/2f/2d/2f/2|\
"D"af "D7"fa|
"G"bb/2g/2 "D/f+"aa/2f/2|"Em"g/2f/2e/2d/2 "A7"eg|\
"D"f/2e/2d/2c/2 "A7"d/2e/2a/2g/2|"D"fd d:|


